src/images/logo-sport24.svg

<svg width="160" height="68" viewBox="0 0 160 68" fill="none" xmlns="http://www.w3.org/2000/svg">
<g clip-path="url(#clip0_2403_13123)">
<path d="M140.185 24.4277V31.2156H134.275V24.4277H128.365V34.0431L131.321 36.8718H140.185V43.6593H146.095V24.4285L140.185 24.4277Z" fill="#FCFCFC"/>
<path d="M109.453 24.4277V30.0839H121.272V31.2156H112.409L109.454 34.0439V43.6593H127.183V38.0031H115.364V36.8718H124.225L127.179 34.0431V27.2556L124.225 24.4277H109.453Z" fill="#FCFCFC"/>
<path d="M14.8965 27.2564V34.0439L17.8519 36.8725H26.7165V38.0031H14.8973V43.6593H29.6719L32.6264 40.831V34.0439L29.6719 31.2156H20.8073V30.0839H32.6264V24.4277H17.8519L14.8965 27.2564Z" fill="#FCFCFC"/>
<path d="M55.6734 24.4277L52.7188 27.2556V40.8302L55.6734 43.6585H67.4885L70.4439 40.8302V27.2564L67.4885 24.4277H55.6734ZM64.5379 38.0023H58.6279V30.0839H64.5371L64.5379 38.0023Z" fill="#FCFCFC"/>
<path d="M90.5391 30.0839H96.4491V43.6585H102.359V30.0839H108.269V24.4277H90.5398L90.5391 30.0839Z" fill="#FCFCFC"/>
<path d="M71.6309 24.4277V43.6585H77.5409V36.871H81.0026L83.4509 39.214V43.6585H89.36V36.871L86.997 34.6084L89.36 32.3462V27.2556L86.4055 24.4277H71.6309ZM82.8601 31.2148H77.5409V30.0839H82.8601V31.2148Z" fill="#FCFCFC"/>
<path d="M33.8066 24.4277V43.6585H39.7166V36.8718H48.5813L51.5358 34.0431V27.2556L48.5813 24.4277H33.8066ZM45.6266 31.2148H39.7166V30.0839H45.6266V31.2148Z" fill="#FCFCFC"/>
</g>
<defs>
<clipPath id="clip0_2403_13123">
<rect width="132" height="20" fill="white" transform="translate(14.4941 24.0449)"/>
</clipPath>
</defs>
</svg>

<svg width="160" height="68" viewBox="0 0 160 68" fill="none" xmlns="http://www.w3.org/2000/svg"><g clip-path="url(#a)" fill="#FCFCFC"><path d="M140.185 24.428v6.788h-5.91v-6.788h-5.91v9.615l2.956 2.829h8.864v6.787h5.91V24.43l-5.91-.001Zm-30.732 0v5.656h11.819v1.132h-8.863l-2.955 2.828v9.615h17.729v-5.656h-11.819v-1.131h8.861l2.954-2.829v-6.787l-2.954-2.828h-14.772Zm-94.557 2.828v6.788l2.956 2.829h8.864v1.13H14.897v5.656h14.775l2.954-2.828v-6.787l-2.954-2.828h-8.865v-1.132h11.82v-5.656H17.851l-2.956 2.828Zm40.777-2.828-2.954 2.828V40.83l2.954 2.828H67.49l2.955-2.828V27.256l-2.956-2.828H55.674Zm8.865 13.574h-5.91v-7.918h5.91v7.918Zm26.002-7.918h5.91v13.574h5.909V30.084h5.91v-5.656h-17.73v5.656Zm-18.91-5.656v19.23h5.91v-6.787h3.463l2.448 2.343v4.444h5.909v-6.787l-2.363-2.263 2.363-2.262v-5.09l-2.954-2.828H71.63Zm11.23 6.787h-5.32v-1.131h5.32v1.13Zm-49.053-6.787v19.23h5.91v-6.786h8.864l2.955-2.829v-6.787l-2.955-2.828H33.807Zm11.82 6.787h-5.91v-1.131h5.91v1.13Z"/></g><defs><clipPath id="a"><path fill="#fff" d="M14.494 24.045h132v20h-132z"/></clipPath></defs></svg>
